packages/match-icons/product/svg/flex.svg

<svg fill="none" height="32" viewBox="0 0 32 32" width="32" xmlns="http://www.w3.org/2000/svg" xmlns:xlink="http://www.w3.org/1999/xlink"><clipPath id="a"><path d="m0 0h32v32h-32z"/></clipPath><g clip-path="url(#a)" fill="#394762"><path d="m1.70002 12.4999c-.13977-.137-.31669-.23-.50882-.2674-.192129-.0375-.391024-.0177-.572026.0568-.181001.0745-.336149.2006-.446209.3624-.1100606.1619-.1701928.3525-.17294226.5482v9.1c-.00352895.1315.02146106.2621.07325016.3829.0517891.1209.1291471.2291.2267501.3171l8.599997 8.6c.13977.1371.31669.2301.50882.2675.19213.0375.39103.0177.57203-.0568.18103-.0746.33613-.2006.44623-.3624.11-.1619.1702-.3525.1729-.5483v-9.1c.0036-.1314-.0214-.262-.0732-.3828-.0518-.1209-.1292-.2291-.2268-.3172z"/><path d="m1.00002 0c-.259072.0185749-.502774.129896-.686438.313559-.183663.183664-.2949843.427366-.31355926.686441v6.6c-.00352895.13142.02146106.26205.07325016.38289s.1291471.22903.2267501.31711l14.699977 14.7c.0881.0976.1963.175.3171.2267.1209.0518.2515.0768.3829.0733h10.2c.1957-.0028.3864-.0629.5482-.1729.1619-.1101.2879-.2652.3625-.4463.0745-.181.0943-.3798.0568-.572-.0374-.1921-.1304-.369-.2675-.5088l-8.6-8.7c-.0881-.0976-.1962-.175-.3171-.2267-.1208-.0518-.2515-.0768-.3829-.0733h-5.6c-.2652 0-.5195-.1054-.7071-.2929-.1875-.1875-.2929-.4419-.2929-.7071s.1054-.5196.2929-.7071c.1876-.1875.4419-.2929.7071-.2929h19.3c.1957-.0027.3864-.0629.5482-.1729.1619-.1101.2879-.2653.3625-.44625.0745-.181.0943-.3799.0568-.57203-.0374-.19213-.1304-.36905-.2675-.50882l-8.6-8.6c-.1891-.181681-.438-.2883159-.7-.3z"/></g></svg>

<svg width="32" height="32" viewBox="0 0 32 32" fill="none" xmlns="http://www.w3.org/2000/svg">
<g clip-path="url(#clip0)">
<path d="M1.70002 12.4999C1.56025 12.3629 1.38333 12.2699 1.1912 12.2325C0.999071 12.195 0.800176 12.2148 0.619174 12.2893C0.438173 12.3638 0.283025 12.4899 0.172965 12.6517C0.0629044 12.8136 0.0027722 13.0042 2.27379e-05 13.1999V22.2999C-0.00350621 22.4314 0.0214838 22.562 0.0732729 22.6828C0.125062 22.8037 0.20242 22.9119 0.300023 22.9999L8.90002 31.5999C9.03979 31.737 9.21671 31.83 9.40884 31.8674C9.60097 31.9049 9.79987 31.8851 9.98087 31.8106C10.1619 31.736 10.317 31.61 10.4271 31.4482C10.5371 31.2863 10.5973 31.0957 10.6 30.8999V21.7999C10.6036 21.6685 10.5786 21.5379 10.5268 21.4171C10.475 21.2962 10.3976 21.188 10.3 21.0999L1.70002 12.4999Z" fill="#394762"/>
<path d="M1.00002 0C0.740948 0.0185749 0.497246 0.129896 0.313582 0.313559C0.129919 0.497223 0.0185977 0.740925 2.27379e-05 1V7.6C-0.00350621 7.73142 0.0214838 7.86205 0.0732729 7.98289C0.125062 8.10373 0.20242 8.21192 0.300023 8.3L15 23C15.0881 23.0976 15.1963 23.175 15.3171 23.2267C15.438 23.2785 15.5686 23.3035 15.7 23.3H25.9C26.0957 23.2972 26.2864 23.2371 26.4482 23.1271C26.6101 23.017 26.7361 22.8619 26.8107 22.6808C26.8852 22.4998 26.905 22.301 26.8675 22.1088C26.8301 21.9167 26.7371 21.7398 26.6 21.6L18 12.9C17.9119 12.8024 17.8038 12.725 17.6829 12.6733C17.5621 12.6215 17.4314 12.5965 17.3 12.6H11.7C11.4348 12.6 11.1805 12.4946 10.9929 12.3071C10.8054 12.1196 10.7 11.8652 10.7 11.6C10.7 11.3348 10.8054 11.0804 10.9929 10.8929C11.1805 10.7054 11.4348 10.6 11.7 10.6H31C31.1957 10.5973 31.3864 10.5371 31.5482 10.4271C31.7101 10.317 31.8361 10.1618 31.9107 9.98085C31.9852 9.79985 32.005 9.60095 31.9675 9.40882C31.9301 9.21669 31.8371 9.03977 31.7 8.9L23.1 0.3C22.9109 0.118319 22.662 0.0116841 22.4 0L1.00002 0Z" fill="#394762"/>
</g>
<defs>
<clipPath id="clip0">
<rect width="32" height="32" fill="white"/>
</clipPath>
</defs>
</svg>
